X:1
T:RVW2/1/106 Highland Jane
T:RVW2/1/106 Highland Jane
T:Transcribed by Simon Furey and Lewis Jones Sung by Burrage, 'Rushills', Capel, Surrey, April/August 1908 [3 of 5]
C:Transcribed by Simon Furey and Lewis Jones
C:Sung by Burrage, 'Rushills', Capel, Surrey, April/August 1908 [3 of 5]
L:1/8
Q:1/4=66
M:3/4
K:E
V:1 treble 
V:1
"^Editorial suggestion" G/A/ | BE E3 D | G/A/B A2 G>A |"^(a)" Be d2 B>A | GF E3 :| B>c | %6
 de d2 G>B | de d3 e | ed Bc/B/ A>G | AB EDEF |"^(b)" GA E3 D | GB A2 G>A |[M:2/4] Be dB/A/ | %13
 GF E2 |: G/A/ | BE E3 D | G/A/B A2 G>A |"^(a) var." Be d/c/B/A/ |[M:3/4] GF E3 :| B>c | %20
 de d2 G>B | de d3 e | ed Bc/B/ A>G | AB ED EF |"^(b) var." GA B3 D | GB A2 G>A | Be dB/A/ | %27
 GF E2 |] x6 | %29

